SF_Symbols/sun.dust.svg

<?xml version="1.0" encoding="UTF-8"?>
<svg xmlns="http://www.w3.org/2000/svg" xmlns:xlink="http://www.w3.org/1999/xlink" width="24" height="24" viewBox="0 0 24 24" version="1.1">
<g id="surface1">
<path style=" stroke:none;fill-rule:nonzero;fill:rgb(100%,100%,100%);fill-opacity:1;" d="M 8.089844 15.253906 L 10.554688 15.253906 C 9.917969 14.984375 9.398438 14.554688 8.992188 13.960938 C 8.585938 13.367188 8.382812 12.703125 8.382812 11.972656 C 8.382812 11.308594 8.542969 10.703125 8.867188 10.152344 C 9.195312 9.601562 9.632812 9.164062 10.179688 8.839844 C 10.730469 8.515625 11.335938 8.351562 12 8.351562 C 12.664062 8.351562 13.265625 8.515625 13.808594 8.839844 C 14.359375 9.164062 14.796875 9.601562 15.121094 10.152344 C 15.453125 10.703125 15.617188 11.308594 15.617188 11.972656 C 15.617188 12.703125 15.414062 13.367188 15 13.960938 C 14.59375 14.554688 14.074219 14.984375 13.445312 15.253906 L 15.898438 15.253906 C 16.28125 14.808594 16.582031 14.308594 16.800781 13.753906 C 17.019531 13.191406 17.128906 12.597656 17.128906 11.972656 C 17.128906 11.265625 16.992188 10.601562 16.726562 9.984375 C 16.457031 9.367188 16.085938 8.820312 15.609375 8.351562 C 15.140625 7.878906 14.597656 7.507812 13.976562 7.238281 C 13.359375 6.96875 12.699219 6.835938 12 6.835938 C 11.300781 6.835938 10.640625 6.96875 10.023438 7.238281 C 9.402344 7.507812 8.855469 7.878906 8.382812 8.351562 C 7.914062 8.820312 7.542969 9.367188 7.273438 9.984375 C 7.007812 10.601562 6.871094 11.265625 6.871094 11.972656 C 6.871094 12.597656 6.976562 13.191406 7.191406 13.753906 C 7.410156 14.308594 7.710938 14.808594 8.089844 15.253906 Z M 2.015625 12.488281 L 4.320312 12.488281 C 4.566406 12.488281 4.769531 12.414062 4.929688 12.273438 C 5.09375 12.121094 5.171875 11.941406 5.164062 11.726562 C 5.160156 11.523438 5.078125 11.34375 4.921875 11.195312 C 4.765625 11.042969 4.566406 10.96875 4.320312 10.96875 L 2.015625 10.96875 C 1.773438 10.96875 1.570312 11.042969 1.414062 11.195312 C 1.257812 11.34375 1.179688 11.523438 1.179688 11.726562 C 1.179688 11.941406 1.257812 12.121094 1.414062 12.273438 C 1.570312 12.414062 1.773438 12.488281 2.015625 12.488281 Z M 7.164062 7.132812 C 7.304688 6.984375 7.375 6.800781 7.367188 6.582031 C 7.367188 6.363281 7.28125 6.167969 7.105469 6 L 5.476562 4.367188 C 5.300781 4.195312 5.105469 4.105469 4.894531 4.105469 C 4.679688 4.105469 4.5 4.179688 4.351562 4.320312 C 4.199219 4.464844 4.125 4.648438 4.125 4.867188 C 4.132812 5.078125 4.222656 5.273438 4.398438 5.445312 L 6.027344 7.078125 C 6.203125 7.253906 6.398438 7.34375 6.617188 7.351562 C 6.835938 7.355469 7.019531 7.285156 7.164062 7.132812 Z M 12 5.136719 C 12.207031 5.132812 12.382812 5.050781 12.535156 4.894531 C 12.683594 4.738281 12.757812 4.539062 12.757812 4.292969 L 12.757812 1.988281 C 12.757812 1.742188 12.683594 1.542969 12.535156 1.386719 C 12.382812 1.230469 12.207031 1.152344 12 1.152344 C 11.789062 1.152344 11.605469 1.230469 11.457031 1.386719 C 11.3125 1.542969 11.242188 1.742188 11.242188 1.988281 L 11.242188 4.292969 C 11.242188 4.539062 11.3125 4.742188 11.457031 4.902344 C 11.605469 5.066406 11.789062 5.144531 12 5.136719 Z M 16.835938 7.132812 C 16.980469 7.277344 17.164062 7.351562 17.382812 7.351562 C 17.601562 7.34375 17.796875 7.253906 17.972656 7.078125 L 19.601562 5.445312 C 19.777344 5.273438 19.867188 5.078125 19.867188 4.867188 C 19.867188 4.652344 19.789062 4.472656 19.640625 4.320312 C 19.503906 4.171875 19.324219 4.101562 19.105469 4.105469 C 18.886719 4.105469 18.691406 4.195312 18.515625 4.367188 L 16.882812 6 C 16.714844 6.167969 16.628906 6.367188 16.621094 6.589844 C 16.617188 6.808594 16.6875 6.992188 16.835938 7.132812 Z M 19.679688 12.488281 L 21.984375 12.488281 C 22.226562 12.488281 22.429688 12.414062 22.585938 12.273438 C 22.742188 12.121094 22.820312 11.941406 22.820312 11.726562 C 22.820312 11.523438 22.742188 11.34375 22.585938 11.195312 C 22.429688 11.042969 22.226562 10.96875 21.984375 10.96875 L 19.679688 10.96875 C 19.433594 10.96875 19.230469 11.042969 19.070312 11.195312 C 18.90625 11.34375 18.828125 11.523438 18.835938 11.726562 C 18.835938 11.941406 18.914062 12.121094 19.070312 12.273438 C 19.230469 12.414062 19.433594 12.488281 19.679688 12.488281 Z M 2.457031 16.125 L 21.496094 16.125 C 21.664062 16.125 21.804688 16.070312 21.917969 15.957031 C 22.03125 15.84375 22.085938 15.703125 22.085938 15.535156 C 22.085938 15.367188 22.03125 15.226562 21.917969 15.113281 C 21.804688 15 21.664062 14.945312 21.496094 14.945312 L 2.457031 14.945312 C 2.292969 14.945312 2.152344 15 2.035156 15.113281 C 1.921875 15.226562 1.867188 15.367188 1.867188 15.535156 C 1.867188 15.703125 1.921875 15.84375 2.035156 15.957031 C 2.152344 16.070312 2.292969 16.125 2.457031 16.125 Z M 3.300781 19.152344 C 3.425781 19.152344 3.535156 19.105469 3.628906 19.011719 C 3.722656 18.917969 3.769531 18.804688 3.769531 18.675781 C 3.769531 18.542969 3.722656 18.429688 3.628906 18.335938 C 3.535156 18.242188 3.425781 18.195312 3.300781 18.195312 C 3.164062 18.195312 3.046875 18.242188 2.953125 18.335938 C 2.867188 18.429688 2.820312 18.542969 2.820312 18.675781 C 2.820312 18.804688 2.867188 18.917969 2.953125 19.011719 C 3.046875 19.105469 3.164062 19.152344 3.300781 19.152344 Z M 7.257812 19.152344 C 7.386719 19.152344 7.5 19.105469 7.59375 19.011719 C 7.6875 18.917969 7.734375 18.804688 7.734375 18.675781 C 7.734375 18.542969 7.6875 18.429688 7.59375 18.335938 C 7.5 18.242188 7.386719 18.195312 7.257812 18.195312 C 7.125 18.195312 7.011719 18.242188 6.917969 18.335938 C 6.824219 18.429688 6.777344 18.542969 6.777344 18.675781 C 6.777344 18.804688 6.824219 18.917969 6.917969 19.011719 C 7.011719 19.105469 7.125 19.152344 7.257812 19.152344 Z M 11.222656 19.152344 C 11.347656 19.152344 11.457031 19.105469 11.550781 19.011719 C 11.644531 18.917969 11.691406 18.804688 11.691406 18.675781 C 11.691406 18.542969 11.644531 18.429688 11.550781 18.335938 C 11.457031 18.242188 11.347656 18.195312 11.222656 18.195312 C 11.085938 18.195312 10.96875 18.242188 10.875 18.335938 C 10.789062 18.429688 10.742188 18.542969 10.742188 18.675781 C 10.742188 18.804688 10.789062 18.917969 10.875 19.011719 C 10.96875 19.105469 11.085938 19.152344 11.222656 19.152344 Z M 15.179688 19.152344 C 15.308594 19.152344 15.421875 19.105469 15.515625 19.011719 C 15.609375 18.917969 15.65625 18.804688 15.65625 18.675781 C 15.65625 18.542969 15.609375 18.429688 15.515625 18.335938 C 15.421875 18.242188 15.308594 18.195312 15.179688 18.195312 C 15.046875 18.195312 14.933594 18.242188 14.839844 18.335938 C 14.746094 18.429688 14.699219 18.542969 14.699219 18.675781 C 14.699219 18.804688 14.746094 18.917969 14.839844 19.011719 C 14.933594 19.105469 15.046875 19.152344 15.179688 19.152344 Z M 19.144531 19.152344 C 19.269531 19.152344 19.378906 19.105469 19.472656 19.011719 C 19.566406 18.917969 19.613281 18.804688 19.613281 18.675781 C 19.613281 18.542969 19.566406 18.429688 19.472656 18.335938 C 19.378906 18.242188 19.269531 18.195312 19.144531 18.195312 C 19.007812 18.195312 18.890625 18.242188 18.796875 18.335938 C 18.710938 18.429688 18.664062 18.542969 18.664062 18.675781 C 18.664062 18.804688 18.710938 18.917969 18.796875 19.011719 C 18.890625 19.105469 19.007812 19.152344 19.144531 19.152344 Z M 2.101562 21.429688 C 2.230469 21.429688 2.34375 21.382812 2.4375 21.289062 C 2.53125 21.195312 2.578125 21.082031 2.578125 20.945312 C 2.578125 20.8125 2.53125 20.699219 2.4375 20.605469 C 2.34375 20.519531 2.230469 20.476562 2.101562 20.476562 C 1.96875 20.476562 1.855469 20.519531 1.761719 20.605469 C 1.667969 20.699219 1.621094 20.8125 1.621094 20.945312 C 1.621094 21.082031 1.667969 21.195312 1.761719 21.289062 C 1.855469 21.382812 1.96875 21.429688 2.101562 21.429688 Z M 6.066406 21.429688 C 6.191406 21.429688 6.300781 21.382812 6.394531 21.289062 C 6.488281 21.195312 6.535156 21.082031 6.535156 20.945312 C 6.535156 20.8125 6.488281 20.699219 6.394531 20.605469 C 6.300781 20.519531 6.191406 20.476562 6.066406 20.476562 C 5.929688 20.476562 5.8125 20.519531 5.71875 20.605469 C 5.625 20.699219 5.578125 20.8125 5.578125 20.945312 C 5.578125 21.082031 5.625 21.195312 5.71875 21.289062 C 5.8125 21.382812 5.929688 21.429688 6.066406 21.429688 Z M 10.023438 21.429688 C 10.152344 21.429688 10.265625 21.382812 10.359375 21.289062 C 10.453125 21.195312 10.5 21.082031 10.5 20.945312 C 10.5 20.8125 10.453125 20.699219 10.359375 20.605469 C 10.265625 20.519531 10.152344 20.476562 10.023438 20.476562 C 9.890625 20.476562 9.777344 20.519531 9.683594 20.605469 C 9.589844 20.699219 9.542969 20.8125 9.542969 20.945312 C 9.542969 21.082031 9.589844 21.195312 9.683594 21.289062 C 9.777344 21.382812 9.890625 21.429688 10.023438 21.429688 Z M 13.988281 21.429688 C 14.113281 21.429688 14.222656 21.382812 14.316406 21.289062 C 14.410156 21.195312 14.457031 21.082031 14.457031 20.945312 C 14.457031 20.8125 14.410156 20.699219 14.316406 20.605469 C 14.222656 20.519531 14.113281 20.476562 13.988281 20.476562 C 13.851562 20.476562 13.734375 20.519531 13.640625 20.605469 C 13.546875 20.699219 13.5 20.8125 13.5 20.945312 C 13.5 21.082031 13.546875 21.195312 13.640625 21.289062 C 13.734375 21.382812 13.851562 21.429688 13.988281 21.429688 Z M 17.945312 21.429688 C 18.074219 21.429688 18.1875 21.382812 18.28125 21.289062 C 18.375 21.195312 18.421875 21.082031 18.421875 20.945312 C 18.421875 20.8125 18.375 20.699219 18.28125 20.605469 C 18.1875 20.519531 18.074219 20.476562 17.945312 20.476562 C 17.8125 20.476562 17.699219 20.519531 17.605469 20.605469 C 17.511719 20.699219 17.464844 20.8125 17.464844 20.945312 C 17.464844 21.082031 17.511719 21.195312 17.605469 21.289062 C 17.699219 21.382812 17.8125 21.429688 17.945312 21.429688 Z M 21.910156 21.429688 C 22.035156 21.429688 22.144531 21.382812 22.238281 21.289062 C 22.332031 21.195312 22.378906 21.082031 22.378906 20.945312 C 22.378906 20.8125 22.332031 20.699219 22.238281 20.605469 C 22.144531 20.519531 22.035156 20.476562 21.910156 20.476562 C 21.773438 20.476562 21.65625 20.519531 21.5625 20.605469 C 21.46875 20.699219 21.421875 20.8125 21.421875 20.945312 C 21.421875 21.082031 21.46875 21.195312 21.5625 21.289062 C 21.65625 21.382812 21.773438 21.429688 21.910156 21.429688 Z M 4.867188 23.691406 C 4.996094 23.691406 5.105469 23.644531 5.195312 23.550781 C 5.289062 23.457031 5.335938 23.339844 5.335938 23.203125 C 5.335938 23.078125 5.289062 22.96875 5.195312 22.875 C 5.105469 22.78125 4.996094 22.734375 4.867188 22.734375 C 4.734375 22.734375 4.621094 22.78125 4.527344 22.875 C 4.433594 22.96875 4.386719 23.078125 4.386719 23.203125 C 4.386719 23.339844 4.433594 23.457031 4.527344 23.550781 C 4.621094 23.644531 4.734375 23.691406 4.867188 23.691406 Z M 8.832031 23.691406 C 8.957031 23.691406 9.066406 23.644531 9.160156 23.550781 C 9.253906 23.457031 9.300781 23.339844 9.300781 23.203125 C 9.300781 23.078125 9.253906 22.96875 9.160156 22.875 C 9.066406 22.78125 8.957031 22.734375 8.832031 22.734375 C 8.695312 22.734375 8.578125 22.78125 8.484375 22.875 C 8.390625 22.96875 8.34375 23.078125 8.34375 23.203125 C 8.34375 23.339844 8.390625 23.457031 8.484375 23.550781 C 8.578125 23.644531 8.695312 23.691406 8.832031 23.691406 Z M 12.789062 23.691406 C 12.917969 23.691406 13.027344 23.644531 13.117188 23.550781 C 13.210938 23.457031 13.257812 23.339844 13.257812 23.203125 C 13.257812 23.078125 13.210938 22.96875 13.117188 22.875 C 13.027344 22.78125 12.917969 22.734375 12.789062 22.734375 C 12.65625 22.734375 12.542969 22.78125 12.449219 22.875 C 12.355469 22.96875 12.308594 23.078125 12.308594 23.203125 C 12.308594 23.339844 12.355469 23.457031 12.449219 23.550781 C 12.542969 23.644531 12.65625 23.691406 12.789062 23.691406 Z M 16.753906 23.691406 C 16.878906 23.691406 16.988281 23.644531 17.082031 23.550781 C 17.175781 23.457031 17.222656 23.339844 17.222656 23.203125 C 17.222656 23.078125 17.175781 22.96875 17.082031 22.875 C 16.988281 22.78125 16.878906 22.734375 16.753906 22.734375 C 16.617188 22.734375 16.5 22.78125 16.40625 22.875 C 16.3125 22.96875 16.265625 23.078125 16.265625 23.203125 C 16.265625 23.339844 16.3125 23.457031 16.40625 23.550781 C 16.5 23.644531 16.617188 23.691406 16.753906 23.691406 Z M 20.710938 23.691406 C 20.839844 23.691406 20.949219 23.644531 21.039062 23.550781 C 21.132812 23.457031 21.179688 23.339844 21.179688 23.203125 C 21.179688 23.078125 21.132812 22.96875 21.039062 22.875 C 20.949219 22.78125 20.839844 22.734375 20.710938 22.734375 C 20.578125 22.734375 20.464844 22.78125 20.371094 22.875 C 20.277344 22.96875 20.230469 23.078125 20.230469 23.203125 C 20.230469 23.339844 20.277344 23.457031 20.371094 23.550781 C 20.464844 23.644531 20.578125 23.691406 20.710938 23.691406 Z M 20.710938 23.691406 "/>
</g>
</svg>

<svg xmlns="http://www.w3.org/2000/svg" width="24" height="24"><path style="stroke:none;fill-rule:nonzero;fill:#fff;fill-opacity:1" d="M8.09 15.254h2.465a3.531 3.531 0 0 1-1.563-1.293 3.434 3.434 0 0 1-.61-1.988c0-.664.161-1.27.485-1.82.328-.551.766-.989 1.313-1.313A3.544 3.544 0 0 1 12 8.352c.664 0 1.266.164 1.809.488.55.324.988.762 1.312 1.312.332.551.496 1.157.496 1.82 0 .731-.203 1.395-.617 1.989a3.532 3.532 0 0 1-1.555 1.293h2.453c.383-.445.684-.945.903-1.5a4.865 4.865 0 0 0 .328-1.781c0-.707-.137-1.371-.402-1.989a5.26 5.26 0 0 0-1.118-1.632 5.183 5.183 0 0 0-1.632-1.114A4.916 4.916 0 0 0 12 6.836c-.7 0-1.36.133-1.977.402a5.25 5.25 0 0 0-2.75 2.746 4.971 4.971 0 0 0-.402 1.989c0 .625.106 1.218.32 1.78.215.548.52 1.052.899 1.5Zm-6.074-2.766H4.32c.246 0 .45-.074.61-.215a.695.695 0 0 0 .234-.546.73.73 0 0 0-.242-.532.833.833 0 0 0-.602-.226H2.016a.833.833 0 0 0-.602.226.722.722 0 0 0-.234.532c0 .214.078.394.234.546.156.141.36.215.602.215Zm5.148-5.355a.74.74 0 0 0 .203-.551A.788.788 0 0 0 7.105 6L5.477 4.367c-.176-.172-.372-.262-.582-.262a.758.758 0 0 0-.543.215.72.72 0 0 0-.227.547c.012.223.11.43.273.578l1.63 1.633a.871.871 0 0 0 .59.274.7.7 0 0 0 .546-.22ZM12 5.137a.738.738 0 0 0 .535-.242.836.836 0 0 0 .223-.602V1.988a.836.836 0 0 0-.223-.601.73.73 0 0 0-.535-.235.719.719 0 0 0-.543.235c-.145.156-.215.355-.215.601v2.305c0 .246.07.45.215.61.137.16.336.245.543.234Zm4.836 1.996a.755.755 0 0 0 .547.219.863.863 0 0 0 .59-.274l1.629-1.633c.175-.172.265-.367.265-.578a.74.74 0 0 0-.226-.547.672.672 0 0 0-.536-.215c-.218 0-.414.09-.59.262L16.884 6a.866.866 0 0 0-.262.59.707.707 0 0 0 .215.543Zm2.844 5.355h2.304a.877.877 0 0 0 .602-.215.727.727 0 0 0 .234-.546.722.722 0 0 0-.234-.532.833.833 0 0 0-.602-.226H19.68a.852.852 0 0 0-.61.226.663.663 0 0 0-.234.532c0 .214.078.394.234.546.16.141.364.215.61.215ZM2.457 16.125h19.04a.562.562 0 0 0 .421-.168.568.568 0 0 0 .168-.422.562.562 0 0 0-.168-.422.568.568 0 0 0-.422-.168H2.457a.568.568 0 0 0-.422.168.562.562 0 0 0-.168.422.568.568 0 0 0 .168.422c.11.113.266.172.422.168Zm.844 3.027c.125 0 .242-.05.328-.14a.479.479 0 0 0 0-.676.452.452 0 0 0-.328-.14.465.465 0 0 0-.48.48c0 .129.046.242.132.336.094.093.211.14.348.14Zm3.957 0a.47.47 0 0 0 .336-.14.47.47 0 0 0 .14-.336.463.463 0 0 0-.14-.34.479.479 0 1 0-.336.816Zm3.965 0c.125 0 .242-.05.328-.14a.47.47 0 0 0 .14-.336.463.463 0 0 0-.14-.34.452.452 0 0 0-.328-.14.471.471 0 0 0-.348.14.503.503 0 0 0-.133.34c0 .129.047.242.133.336.094.093.21.14.348.14Zm3.957 0a.47.47 0 0 0 .336-.14.47.47 0 0 0 .14-.336.448.448 0 0 0-.14-.34.479.479 0 1 0-.336.816Zm3.965 0c.125 0 .242-.05.328-.14a.47.47 0 0 0 .14-.336.448.448 0 0 0-.14-.34.452.452 0 0 0-.328-.14.471.471 0 0 0-.348.14.503.503 0 0 0-.133.34c0 .129.047.242.133.336.094.093.21.14.348.14ZM2.102 21.43c.125 0 .25-.047.336-.14a.457.457 0 0 0 .14-.345.448.448 0 0 0-.14-.34.482.482 0 0 0-.336-.128.48.48 0 0 0-.34.128c-.09.09-.14.211-.14.34 0 .137.046.25.14.344.093.094.207.14.34.14Zm3.964 0c.125 0 .243-.051.329-.14a.457.457 0 0 0 .14-.345.457.457 0 0 0-.137-.332.457.457 0 0 0-.332-.136.493.493 0 0 0-.347.128c-.09.09-.14.211-.14.34 0 .137.046.25.14.344.093.094.21.14.347.14Zm3.957 0a.46.46 0 0 0 .336-.14.457.457 0 0 0 .141-.345.448.448 0 0 0-.14-.34.465.465 0 0 0-.337-.128.48.48 0 0 0-.34.128.448.448 0 0 0-.14.34c0 .137.047.25.14.344.094.094.208.14.34.14Zm3.965 0c.125 0 .242-.051.328-.14a.457.457 0 0 0 .141-.345.457.457 0 0 0-.137-.332.457.457 0 0 0-.332-.136.493.493 0 0 0-.347.128.463.463 0 0 0-.141.34c0 .137.047.25.14.344.094.094.212.14.348.14Zm3.957 0a.46.46 0 0 0 .336-.14.457.457 0 0 0 .14-.345c0-.129-.05-.25-.14-.34a.482.482 0 0 0-.336-.128.48.48 0 0 0-.34.128.448.448 0 0 0-.14.34c0 .137.047.25.14.344.094.094.207.14.34.14Zm3.965 0c.125 0 .242-.051.328-.14a.457.457 0 0 0 .14-.345.457.457 0 0 0-.136-.332.457.457 0 0 0-.332-.136.493.493 0 0 0-.348.128.448.448 0 0 0-.14.34c0 .137.047.25.14.344.094.094.211.14.348.14ZM4.867 23.69c.125 0 .242-.05.328-.14a.471.471 0 0 0 .14-.348.452.452 0 0 0-.14-.328.424.424 0 0 0-.328-.14.448.448 0 0 0-.34.14.452.452 0 0 0-.14.328c0 .137.047.254.14.348.094.094.207.14.34.14Zm3.965 0c.125 0 .242-.05.328-.14a.471.471 0 0 0 .14-.348.452.452 0 0 0-.14-.328.452.452 0 0 0-.328-.14.465.465 0 0 0-.348.14.452.452 0 0 0-.14.328c0 .137.047.254.14.348.094.094.211.14.348.14Zm3.957 0c.125 0 .242-.05.328-.14a.471.471 0 0 0 .14-.348.452.452 0 0 0-.14-.328.424.424 0 0 0-.328-.14.448.448 0 0 0-.34.14.452.452 0 0 0-.14.328c0 .137.046.254.14.348.094.094.207.14.34.14Zm3.965 0c.125 0 .242-.05.328-.14a.471.471 0 0 0 .14-.348.452.452 0 0 0-.14-.328.452.452 0 0 0-.328-.14.465.465 0 0 0-.348.14.452.452 0 0 0-.14.328c0 .137.047.254.14.348.094.094.211.14.348.14Zm3.957 0c.125 0 .242-.05.328-.14a.471.471 0 0 0 .14-.348.452.452 0 0 0-.14-.328.424.424 0 0 0-.328-.14.448.448 0 0 0-.34.14.452.452 0 0 0-.14.328c0 .137.046.254.14.348.094.094.207.14.34.14Zm0 0"/></svg>
